static/img/Logo.svg

<?xml version="1.0" encoding="UTF-8"?>
<svg width="148px" height="35px" viewBox="0 0 148 35" version="1.1" xmlns="http://www.w3.org/2000/svg" xmlns:xlink="http://www.w3.org/1999/xlink">
    <!-- Generator: Sketch 50.2 (55047) - http://www.bohemiancoding.com/sketch -->
    <title>Logo</title>
    <desc>Created with Sketch.</desc>
    <defs></defs>
    <g id="Page-1" stroke="none" stroke-width="1" fill="none" fill-rule="evenodd">
        <g id="Winner" transform="translate(-1300.000000, -274.000000)">
            <g id="Header/Toolbar" transform="translate(442.000000, 257.000000)">
                <g id="Logo" transform="translate(858.000000, 17.000000)">
                    <path d="M20.7274956,32.0763181 C21.1841798,32.0763181 21.5546255,32.4483088 21.5546255,32.9062273 C21.5546255,33.3646896 21.1841798,33.7361365 20.7274956,33.7361365 C20.270269,33.7361365 19.8998233,33.3646896 19.8998233,32.9062273 C19.8998233,32.4483088 20.270269,32.0763181 20.7274956,32.0763181 M19.2419161,1.38055346 C19.6986002,1.38055346 20.069046,1.75254423 20.069046,2.21046269 C20.069046,2.668925 19.6986002,3.04037192 19.2419161,3.04037192 C18.7846895,3.04037192 18.4137014,2.668925 18.4137014,2.21046269 C18.4137014,1.75254423 18.7846895,1.38055346 19.2419161,1.38055346 M20.7274956,3.48360654 L24.5594121,3.48360654 L35.3988817,3.48360654 L43.235734,11.3421835 L43.235734,23.7755942 L35.399424,31.6336273 L26.0243812,31.6336273 L22.2130751,31.6336273 C21.8545618,31.2132342 21.3219444,30.9467496 20.7269532,30.9467496 C19.6481589,30.9467496 18.7727571,31.8245173 18.7727571,32.9062273 C18.7727571,33.9884812 19.6481589,34.8662488 20.7269532,34.8662488 C21.3219444,34.8662488 21.8540194,34.5997642 22.2125327,34.179915 L24.5594121,34.179915 L36.1896721,34.179915 L36.4510994,34.179915 L45.7751584,24.8306558 L45.7751584,24.3330365 L45.7751584,10.2876658 L36.4500146,0.937862692 L36.026958,0.937862692 L24.5594121,0.937862692 L20.7274956,0.937862692 C20.3689822,0.517469615 19.8358224,0.250985 19.2419161,0.250985 C18.1625793,0.250985 17.2871776,1.12875269 17.2871776,2.21046269 C17.2871776,3.29271654 18.1625793,4.17048423 19.2419161,4.17048423 C19.8358224,4.17048423 20.3689822,3.90399962 20.7274956,3.48360654" id="Fill-27" fill="#236192"></path>
                    <path d="M14.0642998,26.9841234 C14.5215264,26.9841234 14.8919721,27.3561142 14.8919721,27.8140326 C14.8919721,28.2724949 14.5215264,28.6439418 14.0642998,28.6439418 C13.6070733,28.6439418 13.2366276,28.2724949 13.2366276,27.8140326 C13.2366276,27.3561142 13.6070733,26.9841234 14.0642998,26.9841234 Z M14.2194206,6.60838338 C14.6766472,6.60838338 15.0470929,6.97983031 15.0470929,7.43829262 C15.0470929,7.89675492 14.6766472,8.26820185 14.2194206,8.26820185 C13.762194,8.26820185 13.3917483,7.89675492 13.3917483,7.43829262 C13.3917483,6.97983031 13.762194,6.60838338 14.2194206,6.60838338 Z M34.3476945,6.02973108 L15.6442535,6.02973108 L15.6442535,6.09771185 C15.2879097,5.71701954 14.7813265,5.47881492 14.2194206,5.47881492 C13.1400839,5.47881492 12.2652245,6.35603877 12.2652245,7.43829262 C12.2652245,8.52054646 13.1400839,9.39831415 14.2194206,9.39831415 C14.8757007,9.39831415 15.4560476,9.073638 15.8113067,8.57601877 L33.2954768,8.57601877 L38.1579158,13.4510557 L38.1579158,21.6658518 L33.2960191,26.5408888 L15.549337,26.5408888 C15.191366,26.1210395 14.6587486,25.8540111 14.0637575,25.8540111 C12.9849631,25.8540111 12.1095614,26.7317788 12.1095614,27.8140326 C12.1095614,28.8962865 12.9849631,29.7735103 14.0637575,29.7735103 C14.6587486,29.7735103 15.191366,29.5075695 15.5498794,29.0871765 L34.3471521,29.0871765 L34.3476945,29.0871765 L34.3482369,29.0871765 L34.3482369,29.0866326 L40.6973402,22.7209134 L40.6973402,21.9285295 L40.6973402,13.1965357 L40.6973402,12.3970818 L34.3476945,6.03027492 L34.3476945,6.02973108 Z" id="Fill-29" fill="#236192"></path>
                    <path d="M2.49684753,16.728327 C2.03962097,16.728327 1.66917525,17.1003178 1.66917525,17.5582362 C1.66917525,18.0166985 2.03962097,18.3881455 2.49684753,18.3881455 C2.95407409,18.3881455 3.32451981,18.0166985 3.32451981,17.5582362 C3.32451981,17.1003178 2.95407409,16.728327 2.49684753,16.728327 Z M7.35603229,21.7387816 C6.89880573,21.7387816 6.52836001,22.1102285 6.52836001,22.5686908 C6.52836001,23.0271532 6.89880573,23.3986001 7.35603229,23.3986001 C7.81325885,23.3986001 8.18370457,23.0271532 8.18370457,22.5686908 C8.18370457,22.1102285 7.81325885,21.7387816 7.35603229,21.7387816 Z M7.83061502,11.5650516 C7.37338846,11.5650516 7.00348512,11.9364985 7.00348512,12.3949608 C7.00348512,12.8534232 7.37338846,13.2248701 7.83061502,13.2248701 C8.28784158,13.2248701 8.6582873,12.8534232 8.6582873,12.3949608 C8.6582873,11.9364985 8.28784158,11.5650516 7.83061502,11.5650516 Z M28.8879863,16.728327 C28.4307597,16.728327 28.060314,17.1003178 28.060314,17.5582362 C28.060314,18.0166985 28.4307597,18.3881455 28.8879863,18.3881455 C29.3452128,18.3881455 29.7156586,18.0166985 29.7156586,17.5582362 C29.7156586,17.1003178 29.3452128,16.728327 28.8879863,16.728327 Z M31.4274107,23.9941116 L31.4274107,23.9946555 L8.69625392,23.9946555 C8.34641865,24.3253139 7.87454782,24.5281685 7.35603229,24.5281685 C6.27669557,24.5281685 5.40129383,23.6509447 5.40129383,22.5686908 C5.40129383,21.4869808 6.27669557,20.6092132 7.35603229,20.6092132 C8.01990573,20.6092132 8.6062188,20.9409593 8.95930835,21.4483678 L15.2010204,21.4483678 L12.5905442,18.8313801 L3.98242707,18.8313801 C3.62391372,19.2517732 3.0912963,19.5182578 2.49684753,19.5182578 C1.41805319,19.5182578 0.542109071,18.6404901 0.542109071,17.5582362 C0.542109071,16.4765262 1.41805319,15.5987585 2.49684753,15.5987585 C3.0912963,15.5987585 3.62391372,15.8652432 3.98242707,16.2856362 L13.6427619,16.2856362 L18.7926625,21.4483678 L31.1931024,21.4483678 L33.0795009,19.5568708 L33.0795009,15.5601455 L31.1920176,13.6681047 L19.6832509,13.6681047 L22.2942694,16.2856362 L27.4024067,16.2856362 C27.7609201,15.8652432 28.2935375,15.5987585 28.8879863,15.5987585 C29.9667806,15.5987585 30.8427247,16.4765262 30.8427247,17.5582362 C30.8427247,18.6404901 29.9667806,19.5182578 28.8879863,19.5182578 C28.2935375,19.5182578 27.7609201,19.2517732 27.4024067,18.8313801 L21.2425941,18.8313801 L16.0921512,13.6681047 L9.31619456,13.6681047 C8.9576812,14.0884978 8.42560617,14.3549824 7.83061502,14.3549824 C6.75182068,14.3549824 5.87587656,13.4772147 5.87587656,12.3949608 C5.87587656,11.312707 6.75182068,10.4354832 7.83061502,10.4354832 C8.42560617,10.4354832 8.9576812,10.7019678 9.31619456,11.121817 L32.205184,11.121817 L32.205184,11.1223608 L32.2442353,11.1223608 L35.6183829,14.5061716 L35.6183829,17.011127 L35.6183829,18.1058893 L35.6183829,19.7869178 L35.6183829,20.6113885 L32.2453201,23.9941116 L31.4274107,23.9941116 Z" id="Fill-31" fill="#236192"></path>
                    <path d="M68.0284782,8.75809846 L53.4216354,8.75809846 L53.4216354,26.3591354 L68.0284782,26.3591354 C71.698223,26.3591354 74.7008401,23.3489469 74.7008401,19.6692838 L74.7008401,15.44795 C74.7008401,11.7688308 71.6971383,8.75809846 68.0284782,8.75809846 Z M56.5392371,11.8841262 L68.0284782,11.8841262 C69.9772504,11.8841262 71.5832384,13.4939108 71.5832384,15.44795 L71.5832384,19.6692838 C71.5832384,21.6233231 69.9772504,23.2336515 68.0284782,23.2336515 L56.5392371,23.2336515 L56.5392371,11.8841262 Z" id="Fill-33" fill="#FFFFFF"></path>
                    <polygon id="Fill-35" fill="#FFFFFF" points="103.249296 15.9959294 103.249296 26.3594617 121.386492 26.3594617 121.386492 23.233434 106.366356 23.233434 106.366356 19.1219571 118.896967 19.1219571 118.896967 15.9959294 113.297975 15.9959294 106.366356 15.9959294"></polygon>
                    <path d="M93.0113266,8.75809846 L78.4050261,8.75809846 L78.4050261,26.3591354 L93.0113266,26.3591354 C96.6816138,26.3591354 99.6836885,23.3489469 99.6836885,19.6692838 L99.6836885,15.44795 C99.6836885,11.7688308 96.680529,8.75809846 93.0113266,8.75809846 Z M81.5220855,11.8841262 L93.0113266,11.8841262 C94.9606412,11.8841262 96.5666292,13.4939108 96.5666292,15.44795 L96.5666292,19.6692838 C96.5666292,21.6233231 94.9606412,23.2336515 93.0113266,23.2336515 L81.5220855,23.2336515 L81.5220855,11.8841262 Z" id="Fill-37" fill="#FFFFFF"></path>
                    <polygon id="Fill-39" fill="#FFFFFF" points="124.713019 8.75809846 134.320201 25.4432985 134.847937 26.3591354 137.365123 26.3591354 137.920521 25.4432985 147.52716 8.75809846 143.927924 8.75809846 136.120361 22.3178146 128.313339 8.75809846"></polygon>
                    <polygon id="Fill-41" fill="#236192" points="106.36641 11.8839086 113.29803 11.8839086 121.386547 11.8839086 121.386547 8.75788092 103.249351 8.75788092 103.249351 11.8839086"></polygon>
                </g>
            </g>
        </g>
    </g>
</svg>

<svg width="148" height="35" 
    xmlns="http://www.w3.org/2000/svg">
    <g fill="none" fill-rule="evenodd">
        <path d="M20.727 32.076a.829.829 0 0 1 0 1.66.829.829 0 1 1 0-1.66M19.242 1.381a.829.829 0 1 1-.004 1.657.829.829 0 0 1 .004-1.657m1.485 2.103H35.4l7.837 7.858v12.434l-7.837 7.858H22.214a1.948 1.948 0 0 0-1.487-.687 1.957 1.957 0 0 0-1.954 1.96c0 1.081.875 1.96 1.954 1.96.595 0 1.127-.267 1.486-.687H36.45l9.324-9.35V10.289L36.45.938H20.727A1.948 1.948 0 0 0 19.242.25c-1.08 0-1.955.878-1.955 1.96 0 1.082.876 1.96 1.955 1.96.594 0 1.127-.267 1.485-.687" fill="#236192"/>
        <path d="M14.064 26.984a.829.829 0 0 1 0 1.66.829.829 0 1 1 0-1.66zm.155-20.376c.458 0 .828.372.828.83a.829.829 0 1 1-1.655 0c0-.458.37-.83.827-.83zm20.129-.578H15.644v.068a1.946 1.946 0 0 0-1.425-.62c-1.079 0-1.954.878-1.954 1.96a1.952 1.952 0 1 0 3.546 1.138h17.484l4.863 4.875v8.215l-4.862 4.875H15.549a1.948 1.948 0 0 0-1.485-.687 1.958 1.958 0 0 0-1.954 1.96c0 1.082.875 1.96 1.954 1.96.595 0 1.127-.266 1.486-.687H34.348l6.35-6.366V12.397l-6.35-6.367z" fill="#236192"/>
        <path d="M2.497 16.728a.829.829 0 0 0 0 1.66.829.829 0 1 0 0-1.66zm4.859 5.01a.829.829 0 0 0-.828.83.829.829 0 1 0 1.656 0c0-.458-.37-.83-.828-.83zm.475-10.173a.828.828 0 0 0-.828.83.828.828 0 1 0 1.655 0c0-.459-.37-.83-.827-.83zm21.057 5.163a.829.829 0 0 0 0 1.66.829.829 0 1 0 0-1.66zm2.54 7.266H8.695c-.35.331-.821.534-1.34.534a1.957 1.957 0 0 1-1.955-1.96c0-1.081.876-1.959 1.955-1.959.664 0 1.25.332 1.603.84h6.242l-2.61-2.618H3.982c-.358.42-.89.687-1.485.687a1.958 1.958 0 0 1-1.955-1.96c0-1.081.876-1.96 1.955-1.96.594 0 1.127.267 1.485.688h9.66l5.15 5.162h12.401l1.887-1.891V15.56l-1.888-1.892H19.683l2.611 2.618h5.108c.359-.42.892-.687 1.486-.687 1.079 0 1.955.878 1.955 1.96 0 1.081-.876 1.96-1.955 1.96a1.948 1.948 0 0 1-1.486-.688h-6.16l-5.15-5.163H9.316c-.358.42-.89.687-1.485.687a1.958 1.958 0 0 1-1.955-1.96c0-1.082.876-1.96 1.955-1.96.595 0 1.127.267 1.485.687h22.928l3.374 3.384V20.611l-3.373 3.383h-.818z" fill="#236192"/>
        <path d="M68.028 8.758H53.422V26.36h14.606c3.67 0 6.673-3.01 6.673-6.69v-4.221c0-3.68-3.004-6.69-6.673-6.69zM56.54 11.884h11.49c1.948 0 3.554 1.61 3.554 3.564v4.221c0 1.954-1.606 3.565-3.555 3.565H56.54v-11.35zM103.25 15.996v10.363h18.136v-3.126h-15.02v-4.111h12.531v-3.126h-12.531zM93.011 8.758H78.405V26.36h14.606c3.67 0 6.673-3.01 6.673-6.69v-4.221c0-3.68-3.003-6.69-6.673-6.69zm-11.489 3.126h11.49c1.949 0 3.555 1.61 3.555 3.564v4.221c0 1.954-1.606 3.565-3.556 3.565H81.522v-11.35zM124.713 8.758l9.607 16.685.528.916h2.517l.556-.916 9.606-16.685h-3.6l-7.807 13.56-7.807-13.56z" fill="#FFF"/>
        <path fill="#236192" d="M106.366 11.884h15.021V8.758h-18.138v3.126z"/>
    </g>
</svg>
